X:59
T:Blue Bell of Scotland. TJD.59
M:C
L:1/8
Q:1/4=120
S:T.J.Dixon MS2, Lincolnshire, early 19thC
R:song
C:(Song)
A:Lincolnshire, Holton le Moor
Z:vmp.R.Greig2010
K:D
“^Sym”d|d2(cB)A2(3Bcd|F>FGE D3d|d2cBA2(3GBG|F>FGED3d|!
“^Song”d2cBA2(3Bcd|F>FGED3d|{e}d2(cB)A2(3Bcd|F>FGED3A|!
F>DFAd2(3Bcd|cAB^GA2(3ABc|{e}d2(cB)A2(3Bcd|F>FGED3″:$:”A|!
F>DFAd2(3Bcd|cAB^GA2(3ABc|edcBA2(3GBG|F>FGE”:$:”D3|]

